symbols/web/sim_card_download/materialsymbolsoutlined/sim_card_download_wght700gradN25_40px.svg

<svg xmlns="http://www.w3.org/2000/svg" height="40" width="40"><path d="m20.042 28.542 7.083-7.042-2.458-2.375-2.875 2.917v-7.5h-3.417v7.5l-2.917-2.917-2.416 2.375Zm-10.084 9q-1.75 0-2.979-1.23-1.229-1.229-1.229-2.979V12.917l10.5-10.5h13.792q1.75 0 3 1.229t1.25 3.021v26.666q0 1.75-1.25 2.979-1.25 1.23-3 1.23Zm0-4.209h20.084V6.667H18.083L9.958 14.75v18.583Zm0 0h20.084Z"/></svg>

<svg xmlns="http://www.w3.org/2000/svg" height="40" width="40"><path d="M9.958 37.542Q8.208 37.542 6.979 36.312Q5.75 35.083 5.75 33.333V12.917L16.25 2.417H30.042Q31.792 2.417 33.042 3.646Q34.292 4.875 34.292 6.667V33.333Q34.292 35.083 33.042 36.312Q31.792 37.542 30.042 37.542ZM9.958 33.333H30.042Q30.042 33.333 30.042 33.333Q30.042 33.333 30.042 33.333V6.667Q30.042 6.667 30.042 6.667Q30.042 6.667 30.042 6.667H18.083L9.958 14.75V33.333Q9.958 33.333 9.958 33.333Q9.958 33.333 9.958 33.333ZM20.042 28.542 27.125 21.5 24.667 19.125 21.792 22.042V14.542H18.375V22.042L15.458 19.125L13.042 21.5ZM9.958 33.333Q9.958 33.333 9.958 33.333Q9.958 33.333 9.958 33.333H18.083H30.042Q30.042 33.333 30.042 33.333Q30.042 33.333 30.042 33.333Q30.042 33.333 30.042 33.333Q30.042 33.333 30.042 33.333Z"/></svg>
